X: 20661
T: How sweet it is to Love
%R: reel
B: James Oswald "The Caledonian Pocket Companion" v.2 p.66 #1
Z: 2019 John Chambers <jc:trillian.mit.edu>
M: C|
L: 1/8
K: Gm
"_Lively"dc |\
B2G2 G3A | B2 d4 (cB) | A2 f4 (ed) | (cB)(AG) F2(dc) |\
B2G2 GBAc | Bd g4 fe | d2bg fdcd | {c}B2G2 G2 :|
|: d2 |\
gaba bag^f | g2b2 d3g | fdcB cBcd | {c}B2F2 F2(dc) |\
B2G2 G3A | Bcdf g3f | d2bg fdcd | {c}B2G2 G2 :|
|: (dc) |\
B2G2 D2(GA) | (Bd)g2 (dg)b2 | a2c2 F2(cB) | (Ac)f2 (cf)a2 |\
g2D2 (GA)(Bc) | .d(bag) (^fg)(d=f) | (ed)(cB) (AB)(cd) | {c}B2G2 G2 :: (ga) |
(ba)(ba) (ba)(g^f) | g2d2 d3=e | (=fg)(ag) (fd)(cB) | A2F2 F2(ga) |\
(ba)(ba) (ba)(g^f) | (g^f)(gf) (g=f)(_ed) | (ed)(cB) (AB)(cd) | B2G2 G2 :|


